X:1
T:Romanzen und Balladen für gemischten Chor
T:Der Schmied
T:Robert Schumann
T:Ludwig Uhland
T:Der Schmied
T:Op. 145,1
T:CPDL - Creative Commons Attribution Non Commercial 3.0
T:CPDL - Creative Commons Attribution Non Commercial 3.0
T:CPDL - Creative Commons Attribution Non Commercial 3.0
T:CPDL - Creative Commons Attribution Non Commercial 3.0
T:CPDL - Creative Commons Attribution Non Commercial 3.0
T:CPDL - Creative Commons Attribution Non Commercial 3.0
C:Robert Schumann
Z:Ludwig Uhland
Z:CPDL - Creative Commons Attribution Non Commercial 3.0
%%score [ ( 1 2 ) 3 4 ]
L:1/8
Q:1/4=70
M:3/8
K:Bb
V:1 treble nm="Sopran\nAlt"
V:2 treble 
V:3 treble-8 nm="Tenor"
V:4 bass nm="Bass"
V:1
"^Munter" F | B2 c/e/ | d2 f | g/e/B e/g/ | fBF | G/c/FF | G/c/FF | =E>GB | BAG |"^cresc." F3 | %10
w: Ich|hör’ mei- nen|Schatz, den|Ham- * mer er *|schwin- get, das|rau- * schet, das|klin- * get, das|dringt in die|Wei- te wie|Glo-|
 A2- A/A/ |!f!!f! f=ed | ^c=Bc | d2!p!!p! d | ^c>d=e | d2 A | dBG | ADD | =C>CC | CFA | !^!B/d/dA | %21
w: cken- * ge-|läu- te durch|Gas- sen und|Platz. Am|schwar- zen Ka-|min, da|ste- het mein|Lie- ber, doch|geh’ ich vor-|ü- ber, die|Bäl- * ge dann|
 !^!B/d/d_E | D>DD | DGB | !^!c/e/eB | !^!c2 B | A2 A/A/ | d2 B | A>AA | dD=F |!p!!p! B2 c/e/ | %31
w: sau- * sen, die|Flam- men auf-|brau- sen und|lo- * dern um|ihn, ich|hör’ mei- nen|Schatz, den|Ham- mer er|schwin- get, ich|hör’ mei- nen|
 d2 f | g/e/B e/g/ | fBF | G/c/FF | G/c/FF | =E>"^cresc."GB | BAG |!ff! f3 | F2- F/F/ | GGc | AAd | %42
w: Schatz, den|Ham- * mer er _|schwin- get, das|rau- * schet, das|klin- * get, das|dringt in die|Wei- te wie|Glo-|cken- * ge-|läu- te durch|Gas- sen und|
 B2 F | B2 c/e/ | d z"^cresc." B | B>BB | BBB | BBB | B>BB | B/c/d c/B/ |!f!!f! f>FF | %51
w: Platz. Ich|hör’ mei- nen|Schatz, das|rau- schet, und|klin- get, das|klin- get wie|Glo- cken- ge-|läu- * te durch _|Ga- sen und|
 B2!p!!p! B, | G>GG | C2 D | E/"^dim."D/CF | DB,D |!<(! D/F/!<)!!>(!F!>)!F | F/B/BB |!<(! d3!<)! | %59
w: Platz. Ich|hör’ mei- nen|Schatz, den|Ham- * mer er|schwin- get, das|rau- * schet, das|klin- * get, das|dringt|
!>(! F2!>)! F | d3 | F2 F | d3 | d2 d | d3 | d z!pp!!pp! F | B2 .A/.c/ | B2 |] %68
w: in die|Wei-|te wie|Glo-|cken- ge-|läu-|te, ich|hör’ mei- nen|Schatz.|
V:2
 F | D2 F/F/ | B2 d | e/B/Ge | dDD | EDD | EDD | =E>GB | BAG | D3 | F2- F/F/ | AGF | GGG | F2 F | %14
 G>F=E | F2 F | BG=E | FDD | C>CC | CCF | !^!FFF | !^!FFE | D>DD | DDG | !^!GGG | !^!G2 G | %26
 G2 G/G/ | ^F2 G | G>GG | ^FD=F | D2 F/c/ | B2 d | e/B/Ge | dDD | EDD | EDD | ^C>CC | ^CCC | d3 | %39
 D2- D/D/ | EEG | FFA | F2 F | D2 A/c/ | B x F | E>ED | DDD | EDB | =E>EE | =EEE | F>FF | F2 B, | %52
 G>GG | C2 D | E/D/CF | DB,B, | B,/D/DD | DDD | D3 | D2 D | D3 | D2 D | D3 | D2 D | D3 | D x D | %66
 D2 .E/.E/ | D2 |] %68
V:3
 F | F2 F/F/ | F2 B | B>BB | BBF | GFF | GFF | =E>GB | BAG |"^cresc." A3 | d2- d/d/ |!f! A^cd | %12
w: ich|hör’ mei- nen|Schatz, den|Ham- mer er|schwin- get, das|rau- schet, das|klin- get, das|dringt in die|Wei- te wie|Glo-|cken- * ge-|läu- te durch|
 =eAe | d2!p! d | =e>d^c | d2 d | GB^c | dDD | =C>CC | CAF | !^!ddc | !^!dd_E | D>DD | DBd | %24
w: Gas- sen und|Platz. Am|schwar- zen Ka-|min, da|ste- het mein|Lie- ber, doch|geh’ ich vor-|ü- ber, die|Bäl- ge dann|sau- sen, die|Flam- men auf-|brau- sen und|
 !^!ecd | !^!e2 d | c2 ^c/c/ | d2 d | =c>^cc | ddd |!p! =FFF | F>FF | FFF | F>FF | FFF | F>FF | %36
w: lo- dern um|ihn. ich|hör’ mei- nen|Schatz, den|Ham- mer er|schwin- get, er|schwin- get, den|Ham- mer er|schwin- get, das|rau- schet und|klin- get, das|dringt in die|
 F>"^cresc."FF | FFF |!ff! d3 | d2- d/d/ | eee | ff[Ff] | [DB]2 [Ac]/[ce]/ | [Bd]2 F | %44
w: Wei- te, wie|Glo- cken, wie|Glo-|cken, _ wie|Glo- cken- ge-|läu- te. Ich|hör’ mei- nen|Schatz, das|
 B>B"^cresc."A | G/A/BF | [Bd]>[Bd][Ac] | [GB]/[Ac]/[Bd] [GB]/[Ac]/ | [Bd]>[Bd][Bd] | %49
w: rau- schet und|klin- * get, das|dringt in die|Wei- * te wie _|Glo- cken- ge-|
 [Bd]/[Ac]/[GB] [Ac]/[Bd]/ |!f!!f! [df]>[df][c_e] | [Bd]2!p! B, | G>GG | C2 D | E/"^dim."D/CF | %55
w: läu- * te durch _|Gas- sen und|Platz. Ich|hör’ mei- nen|Schatz, den|Ham- * mer er|
 DBF |!<(!!>(! F3!<)!!>)! | F2 F |!<(! F3-!<)! |!>(! FF!>)!F | F3 | F2 F | (^F2 G- | G)A>A | B3 | %65
w: schwin- get, das|rau-|schet, das|dringt|_ in die|Wei-|te wie|Glo- *|* cken- ge-|läu-|
 B z!pp! F | F2 .F/.F/ | F2 |] %68
w: te, ich|hör’ mei- nen|Schatz.|
V:4
 F, | B,,2 B,,/B,,/ | B,,2 B,, | B,,>B,,B,, | B,,B,,B,, | B,,B,,B,, | B,,B,,F, | =E,>G,B, | %8
w: ||||||||
 B,A,G, |"^cresc." A,3 | A,2- A,/A,/ |!f! A,A,A, | A,A,A, | D,2!p! D, | D,>D,D, | D,2 D, | D,D,D, | %17
w: |||||||||
 D,D,D, | C,>C,C, | C,C,C, | !^!C,C,C, | !^!C,C,_E, | D,>D,D, | D,D,D, | !^!D,D,D, | !^!D,3- | %26
w: ||||||||ihn.|
 D,2 D, | D2 D/D/ | D,2 D, | D>DD |!p! B,,B,,B,, | B,,>B,,B,, | B,,B,,B,, | B,,>B,,B,, | %34
w: _ ich|hör’ mei- nen|Schatz, den|Ham- mer er|schwin- get, *||||
 B,,B,,B,, | B,,>B,,B,, | B,,>"^cresc."B,,B,, | B,,B,,B,, |!ff! F,3 | F,2- F,/F,/ | F,F,F, | %41
w: |||||||
 F,F,F, | B,,2 B,,/B,,/ | B,,2 B,, | B,,>B,,"^cresc."B,, | B,,B,,B,, | B,,>B,,B,, | B,,B,,B,, | %48
w: |||||||
 B,,>B,,B,, | B,,B,,B,, |!f! F,>F,F, | B,,2!p! B,, | G,>G,G, | C,2 D, | E,/"^dim."D,/C,F, | %55
w: |||||||
 D,B,,B,, |!<(!!>(! B,,3!<)!!>)! | B,,2 B,, |!<(! B,,3-!<)! |!>(! B,,B,,!>)!B,, | B,,3 | B,,2 B,, | %62
w: |||||||
 B,,3- | B,,B,,>B,, | B,,3 | B,, z!pp! B,, | B,,2 .B,,/.B,,/ | B,,2 |] %68
w: ||||||

